public/flags/ZW.svg

<svg fill="none" height="53" viewBox="0 0 61 53" width="61" xmlns="http://www.w3.org/2000/svg" xmlns:xlink="http://www.w3.org/1999/xlink"><linearGradient id="a" gradientUnits="userSpaceOnUse" x1="2.40479" x2="2.40479" y1="17.1667" y2="31.3334"><stop offset="0" stop-color="#f12f1f"/><stop offset="1" stop-color="#de2010"/></linearGradient><mask id="b" height="43" maskUnits="userSpaceOnUse" width="59" x="1" y="3"><rect fill="#fff" height="42.5" rx="4.24286" width="59" x="1" y="3"/></mask><rect fill="#fff" height="42.5" rx="4.24286" width="59" x="1" y="3"/><g mask="url(#b)"><g clip-rule="evenodd" fill-rule="evenodd"><path d="m1 8.66667h59v-5.66667h-59z" fill="#369d0c"/><path d="m1 45.4999h59v-5.6666h-59z" fill="#369d0c"/><path d="m1 19.9999h59v-5.6666h-59z" fill="#369d0c"/><path d="m1 34.1667h59v-5.6667h-59z" fill="#369d0c"/><path d="m1 28.5h59v-8.5h-59z" fill="#262626"/><path d="m1 14.3333h59v-5.66667h-59z" fill="#ffd40e"/><path d="m1 39.8333h59v-5.6667h-59z" fill="#ffd40e"/></g><path d="m-.395284 44.0857v-39.67141h.920621l26.225363 19.83571-26.225363 19.8357z" fill="#fff" stroke="#262626" stroke-width="2.82857"/><path clip-rule="evenodd" d="m9.42859 27.0126-4.12849 2.968 1.52328-4.8769-4.07483-3.0425 5.06993-.046 1.61011-4.8485 1.61011 4.8485 5.0699.046-4.0748 3.0425 1.5233 4.8769z" fill="url(#a)" fill-rule="evenodd"/></g></svg>

<svg width="61" height="53" viewBox="0 0 61 53" fill="none" xmlns="http://www.w3.org/2000/svg">
<rect x="1" y="3" width="59" height="42.5" rx="4.24286" fill="white"/>
<mask id="mask0" mask-type="alpha" maskUnits="userSpaceOnUse" x="1" y="3" width="59" height="43">
<rect x="1" y="3" width="59" height="42.5" rx="4.24286" fill="white"/>
</mask>
<g mask="url(#mask0)">
<path fill-rule="evenodd" clip-rule="evenodd" d="M1 8.66667H60V3H1V8.66667Z" fill="#369D0C"/>
<path fill-rule="evenodd" clip-rule="evenodd" d="M1 45.4999H60V39.8333H1V45.4999Z" fill="#369D0C"/>
<path fill-rule="evenodd" clip-rule="evenodd" d="M1 19.9999H60V14.3333H1V19.9999Z" fill="#369D0C"/>
<path fill-rule="evenodd" clip-rule="evenodd" d="M1 34.1667H60V28.5H1V34.1667Z" fill="#369D0C"/>
<path fill-rule="evenodd" clip-rule="evenodd" d="M1 28.5H60V20H1V28.5Z" fill="#262626"/>
<path fill-rule="evenodd" clip-rule="evenodd" d="M1 14.3333H60V8.66663H1V14.3333Z" fill="#FFD40E"/>
<path fill-rule="evenodd" clip-rule="evenodd" d="M1 39.8333H60V34.1666H1V39.8333Z" fill="#FFD40E"/>
<path d="M-0.395284 44.0857V4.41429H0.525337L26.7507 24.25L0.525337 44.0857H-0.395284Z" fill="white" stroke="#262626" stroke-width="2.82857"/>
<path fill-rule="evenodd" clip-rule="evenodd" d="M9.42859 27.0126L5.3001 29.9806L6.82338 25.1037L2.74855 22.0612L7.81848 22.0152L9.42859 17.1667L11.0387 22.0152L16.1086 22.0612L12.0338 25.1037L13.5571 29.9806L9.42859 27.0126Z" fill="url(#paint0_linear)"/>
</g>
<defs>
<linearGradient id="paint0_linear" x1="2.40479" y1="17.1667" x2="2.40479" y2="31.3334" gradientUnits="userSpaceOnUse">
<stop stop-color="#F12F1F"/>
<stop offset="1" stop-color="#DE2010"/>
</linearGradient>
</defs>
</svg>
